Default.style/railway.svg

<svg width="22" height="34" xmlns="http://www.w3.org/2000/svg"><path d="m19.016 34-.789-2H3.773l-.789 2H.834l.789-2H0v-2h2.412l.789-2H2v-2h1.99l.79-2H3a3 3 0 0 1-3-3V3a3 3 0 0 1 3-3h16a3 3 0 0 1 3 3v18a3 3 0 0 1-3 3h-1.779l.789 2H20v2h-1.201l.789 2H22v2h-1.623l.789 2h-2.15ZM3.5 20a1.5 1.5 0 1 0-.001-3.001A1.5 1.5 0 0 0 3.5 20ZM12 2H9a1 1 0 1 0 0 2h3a1 1 0 1 0 0-2Zm8 5a2 2 0 0 0-2-2H4a2 2 0 0 0-2 2v6a2 2 0 0 0 2 2h14a2 2 0 0 0 2-2V7ZM6 26h10l-.812-2H6.812L6 26Zm12.5-6a1.5 1.5 0 1 0-.001-3.001A1.5 1.5 0 0 0 18.5 20Zm-1.298 8H5.797L5 30h13l-.798-2Z" fill="#888" fill-rule="evenodd"/></svg>

<?xml version="1.0" encoding="UTF-8" standalone="no"?>
<svg width="22px" height="34px" viewBox="0 0 22 34" version="1.1" xmlns="http://www.w3.org/2000/svg" xmlns:xlink="http://www.w3.org/1999/xlink" xmlns:sketch="http://www.bohemiancoding.com/sketch/ns">
    <!-- Generator: Sketch 3.2.2 (9983) - http://www.bohemiancoding.com/sketch -->
    <title>railway</title>
    <desc>Created with Sketch.</desc>
    <defs></defs>
    <g id="p" stroke="none" stroke-width="1" fill="none" fill-rule="evenodd" sketch:type="MSPage">
        <g id="railway" sketch:type="MSLayerGroup" fill="#888888">
            <path d="M19.016,34 L18.227,32 L3.773,32 L2.984,34 L0.834,34 L1.623,32 L0,32 L0,30 L2.412,30 L3.201,28 L2,28 L2,26 L3.99,26 L4.78,24 L3,24 C1.343,24 0,22.657 0,21 L0,3 C0,1.343 1.343,0 3,0 L19,0 C20.656,0 22,1.343 22,3 L22,21 C22,22.657 20.656,24 19,24 L17.221,24 L18.01,26 L20,26 L20,28 L18.799,28 L19.588,30 L22,30 L22,32 L20.377,32 L21.166,34 L19.016,34 Z M3.5,20 C4.328,20 5,19.328 5,18.5 C5,17.672 4.328,17 3.5,17 C2.672,17 2,17.672 2,18.5 C2,19.328 2.672,20 3.5,20 L3.5,20 Z M12,2 L9,2 C8.447,2 8,2.447 8,3 C8,3.553 8.447,4 9,4 L12,4 C12.553,4 13,3.553 13,3 C13,2.447 12.553,2 12,2 L12,2 Z M20,7 C20,5.896 19.104,5 18,5 L4,5 C2.896,5 2,5.896 2,7 L2,13 C2,14.104 2.896,15 4,15 L18,15 C19.104,15 20,14.104 20,13 L20,7 L20,7 Z M6,26 L16,26 L15.1881045,24 L6.81189545,24 L6,26 L6,26 Z M18.5,20 C19.328,20 20,19.328 20,18.5 C20,17.672 19.328,17 18.5,17 C17.672,17 17,17.672 17,18.5 C17,19.328 17.672,20 18.5,20 L18.5,20 Z M17.2023301,28 L5.79666019,28 L5,30 L18,30 L17.2023301,28 L17.2023301,28 Z" id="Shape" sketch:type="MSShapeGroup"></path>
        </g>
    </g>
</svg>
